src/icons/crop.svg

<svg width="24" height="24" viewBox="0 0 24 24" fill="none" xmlns="http://www.w3.org/2000/svg">
<path d="M4 2H6V16.5858L16.5858 6H8V4H18.5858L19.7929 2.79289L21.2071 4.20711L20 5.41421V18H22V20H20V22H18V7.41421L7.41421 18H16V20H4V6H2V4H4V2Z" fill="black"/>
</svg>

<svg xmlns="http://www.w3.org/2000/svg" width="24" height="24" fill="none"><path fill="currentColor" d="M4 2h2v14.586L16.586 6H8V4h10.586l1.207-1.207 1.414 1.414L20 5.414V18h2v2h-2v2h-2V7.414L7.414 18H16v2H4V6H2V4h2z"/></svg>
